app/src/assets/list/raumverwaltung.svg

<svg xmlns="http://www.w3.org/2000/svg" xmlns:xlink="http://www.w3.org/1999/xlink" preserveAspectRatio="xMidYMid meet" width="640" height="640"><defs><path d="M287.48 72.94c11.3 0 20.44 9.15 20.44 20.45v200.06c0 11.3-9.15 20.44-20.44 20.44H87.42c-11.3 0-20.45-9.15-20.45-20.44V93.4c0-11.3 9.15-20.45 20.45-20.45h200.06z" id="A"/><path d="M549.5 75.85c11.3 0 20.45 9.15 20.45 20.44v200.07c0 11.3-9.16 20.44-20.45 20.44H349.44c-11.3 0-20.44-9.15-20.44-20.44V96.3c0-11.3 9.15-20.44 20.44-20.44H549.5z" id="B"/><path d="M289.5 335.62c11.3 0 20.44 9.15 20.44 20.44v200.06c0 11.3-9.15 20.45-20.44 20.45H89.43c-11.3 0-20.45-9.16-20.45-20.45V356.06c0-11.3 9.15-20.44 20.45-20.44H289.5z" id="C"/><path d="M549.5 335.62c11.3 0 20.45 9.15 20.45 20.44v200.06a20.46 20.46 0 0 1-20.45 20.45H349.44c-11.3 0-20.44-9.16-20.44-20.45V356.06c0-11.3 9.15-20.44 20.44-20.44H549.5z" id="D"/><path d="M193.83 131.3a11.93 11.93 0 0 1 11.93 11.93V249.4a11.93 11.93 0 0 1-11.93 11.93c-2.38 0 2.4 0 0 0a11.93 11.93 0 0 1-11.93-11.93V143.24a11.93 11.93 0 0 1 11.93-11.93c2.4 0-2.38 0 0 0z" id="E"/><path d="M200.42 146.7a4.71 4.71 0 0 1-.11 6.66l-30.16 29.16a4.72 4.72 0 0 1-6.66-.12l-10.03-10.37a4.72 4.72 0 0 1 .11-6.67l30.15-29.15a4.71 4.71 0 0 1 6.66.11l10.04 10.38z" id="F"/><path d="M461.48 131.3a11.93 11.93 0 0 1 11.93 11.93V249.4a11.93 11.93 0 0 1-11.93 11.93c-2.38 0 2.4 0 0 0-6.58 0-11.93-5.34-11.93-11.93V143.24c0-6.6 5.35-11.93 11.93-11.93 2.4 0-2.38 0 0 0z" id="G"/><path d="M466.8 136.37c3.95 2.53 5.1 7.78 2.57 11.72l-40.78 63.6a8.49 8.49 0 0 1-11.72 2.56l-5.8-3.7a8.5 8.5 0 0 1-2.56-11.73l40.77-63.6a8.49 8.49 0 0 1 11.73-2.57l5.8 3.72z" id="H"/><path d="M493.8 209a7.95 7.95 0 0 1-7.79 8.09l-70.68 1.33a7.93 7.93 0 0 1-8.09-7.79l-.15-7.97c-.08-4.4 3.4-8 7.8-8.1l70.68-1.34a7.95 7.95 0 0 1 8.09 7.8l.15 7.97z" id="I"/><path d="M243.8 396.57a11.93 11.93 0 0 1 11.93 11.93v106.18c0 6.58-5.34 11.93-11.93 11.93-2.4 0 2.38 0 0 0-6.6 0-11.93-5.35-11.93-11.93V408.5a11.93 11.93 0 0 1 11.93-11.93c2.38 0-2.4 0 0 0z" id="J"/><path d="M249.13 401.63a8.5 8.5 0 0 1 2.56 11.73l-40.77 63.6a8.49 8.49 0 0 1-11.73 2.57l-5.8-3.72a8.49 8.49 0 0 1-2.57-11.73l40.78-63.6c2.53-3.95 7.78-5.1 11.72-2.57l5.8 3.72z" id="K"/><path d="M276.12 474.26a7.93 7.93 0 0 1-7.79 8.09l-70.68 1.34c-4.38.08-8-3.4-8.1-7.8l-.15-7.97a7.95 7.95 0 0 1 7.79-8.09l70.68-1.33a7.93 7.93 0 0 1 8.09 7.79l.15 7.97z" id="L"/><path d="M159.92 396.57a11.93 11.93 0 0 1 11.93 11.93v106.18c0 6.58-5.34 11.93-11.93 11.93-2.38 0 2.4 0 0 0-6.6 0-11.93-5.35-11.93-11.93V408.5a11.93 11.93 0 0 1 11.93-11.93c2.4 0-2.38 0 0 0z" id="M"/><path d="M166.5 411.96c1.8 1.88 1.76 4.86-.12 6.67l-30.15 29.15a4.71 4.71 0 0 1-6.66-.11l-10.03-10.38a4.72 4.72 0 0 1 .11-6.67l30.15-29.15a4.72 4.72 0 0 1 6.66.12l10.04 10.37z" id="N"/><path d="M421.97 387.03a11.93 11.93 0 0 1 11.93 11.93v106.17a11.93 11.93 0 0 1-11.93 11.93c-2.38 0 2.4 0 0 0a11.93 11.93 0 0 1-11.93-11.93V398.96a11.93 11.93 0 0 1 11.93-11.93c2.4 0-2.38 0 0 0z" id="O"/><path d="M428.56 402.42a4.71 4.71 0 0 1-.11 6.66l-30.16 29.15a4.71 4.71 0 0 1-6.66-.11l-10.03-10.38a4.71 4.71 0 0 1 .11-6.66l30.15-29.15a4.71 4.71 0 0 1 6.66.11l10.04 10.38z" id="P"/><path d="M493.06 387.03a11.93 11.93 0 0 1 11.93 11.93v106.17a11.93 11.93 0 0 1-11.93 11.93c-2.38 0 2.4 0 0 0a11.93 11.93 0 0 1-11.93-11.93V398.96a11.93 11.93 0 0 1 11.93-11.93c2.4 0-2.38 0 0 0z" id="Q"/><path d="M499.65 402.42a4.7 4.7 0 0 1-.12 6.66l-30.15 29.15a4.71 4.71 0 0 1-6.66-.11l-10.03-10.38a4.71 4.71 0 0 1 .11-6.66l30.15-29.15a4.71 4.71 0 0 1 6.66.11l10.04 10.38z" id="R"/></defs><use xlink:href="#A" fill="#0ed0ed"/><use xlink:href="#B" fill="#0eed0e"/><use xlink:href="#C" fill="#7c16bc"/><use xlink:href="#D" fill="#ed5a0e"/><g fill="#fefefe"><use xlink:href="#E"/><use xlink:href="#F"/></g><use xlink:href="#G" fill-opacity="0" stroke="#000"/><g fill="#fefefe"><use xlink:href="#G"/><use xlink:href="#H"/><use xlink:href="#I"/></g><use xlink:href="#K" fill-opacity="0" stroke="#000"/><g fill="#fefefe"><use xlink:href="#J"/><use xlink:href="#K"/><use xlink:href="#L"/><use xlink:href="#M"/><use xlink:href="#N"/><use xlink:href="#O"/><use xlink:href="#P"/><use xlink:href="#Q"/><use xlink:href="#R"/></g></svg>

<?xml version="1.0" encoding="UTF-8" standalone="no"?>
<!DOCTYPE svg PUBLIC "-//W3C//DTD SVG 1.1//EN" "http://www.w3.org/Graphics/SVG/1.1/DTD/svg11.dtd">
<svg version="1.1" xmlns="http://www.w3.org/2000/svg" xmlns:xlink="http://www.w3.org/1999/xlink" preserveAspectRatio="xMidYMid meet" viewBox="0 0 640 640" width="640" height="640"><defs><path d="M287.48 72.94C298.77 72.94 307.92 82.09 307.92 93.39C307.92 137.49 307.92 249.35 307.92 293.45C307.92 304.74 298.77 313.89 287.48 313.89C243.38 313.89 131.52 313.89 87.42 313.89C76.12 313.89 66.97 304.74 66.97 293.45C66.97 249.35 66.97 137.49 66.97 93.39C66.97 82.09 76.12 72.94 87.42 72.94C131.52 72.94 243.38 72.94 287.48 72.94Z" id="a53FYUUtR"></path><path d="M549.5 75.85C560.79 75.85 569.95 85 569.95 96.29C569.95 140.4 569.95 252.26 569.95 296.36C569.95 307.65 560.79 316.8 549.5 316.8C505.4 316.8 393.54 316.8 349.44 316.8C338.15 316.8 329 307.65 329 296.36C329 252.26 329 140.4 329 96.29C329 85 338.15 75.85 349.44 75.85C393.54 75.85 505.4 75.85 549.5 75.85Z" id="a1bjjiG9RD"></path><path d="M289.49 335.62C300.78 335.62 309.93 344.77 309.93 356.06C309.93 400.16 309.93 512.02 309.93 556.12C309.93 567.41 300.78 576.57 289.49 576.57C245.39 576.57 133.53 576.57 89.43 576.57C78.13 576.57 68.98 567.41 68.98 556.12C68.98 512.02 68.98 400.16 68.98 356.06C68.98 344.77 78.13 335.62 89.43 335.62C133.53 335.62 245.39 335.62 289.49 335.62Z" id="dJ26DWtm0"></path><path d="M549.5 335.62C560.79 335.62 569.95 344.77 569.95 356.06C569.95 400.16 569.95 512.02 569.95 556.12C569.95 567.41 560.79 576.57 549.5 576.57C505.4 576.57 393.54 576.57 349.44 576.57C338.15 576.57 329 567.41 329 556.12C329 512.02 329 400.16 329 356.06C329 344.77 338.15 335.62 349.44 335.62C393.54 335.62 505.4 335.62 549.5 335.62Z" id="a2aZCzylh"></path><path d="M193.83 131.31C200.42 131.31 205.76 136.65 205.76 143.24C205.76 166.86 205.76 225.79 205.76 249.41C205.76 256 200.42 261.34 193.83 261.34C191.45 261.34 196.22 261.34 193.83 261.34C187.24 261.34 181.9 256 181.9 249.41C181.9 225.79 181.9 166.86 181.9 143.24C181.9 136.65 187.24 131.31 193.83 131.31C196.22 131.31 191.45 131.31 193.83 131.31Z" id="c1q4SEEQB0"></path><path d="M200.42 146.7C202.23 148.57 202.18 151.56 200.31 153.36C193.6 159.85 176.86 176.03 170.15 182.52C168.28 184.32 165.3 184.27 163.49 182.4C160.83 179.65 156.12 174.78 153.46 172.03C151.65 170.15 151.7 167.17 153.57 165.36C160.28 158.88 177.01 142.7 183.72 136.21C185.59 134.4 188.57 134.45 190.38 136.32C193.05 139.08 197.76 143.95 200.42 146.7Z" id="a1fhdc4P2G"></path><path d="" id="drS6pBEfI"></path><path d="M461.48 131.31C468.07 131.31 473.41 136.65 473.41 143.24C473.41 166.86 473.41 225.79 473.41 249.41C473.41 256 468.07 261.34 461.48 261.34C459.1 261.34 463.87 261.34 461.48 261.34C454.9 261.34 449.55 256 449.55 249.41C449.55 225.79 449.55 166.86 449.55 143.24C449.55 136.65 454.9 131.31 461.48 131.31C463.87 131.31 459.1 131.31 461.48 131.31Z" id="b4w146LAoV"></path><path d="M466.8 136.37C470.75 138.9 471.9 144.15 469.37 148.09C460.3 162.24 437.67 197.54 428.59 211.69C426.06 215.63 420.81 216.78 416.87 214.25C414.28 212.59 413.66 212.2 411.07 210.54C407.13 208.01 405.98 202.76 408.51 198.81C417.58 184.66 440.21 149.36 449.28 135.22C451.81 131.27 457.06 130.12 461.01 132.65C463.6 134.31 464.22 134.71 466.8 136.37Z" id="c1dKY49tmQ"></path><path d="M493.8 209C493.88 213.38 490.39 217.01 486.01 217.09C470.28 217.39 431.05 218.13 415.33 218.42C410.94 218.51 407.32 215.02 407.24 210.63C407.18 207.45 407.15 205.84 407.09 202.66C407.01 198.27 410.49 194.65 414.88 194.57C430.6 194.27 469.83 193.53 485.56 193.23C489.94 193.15 493.57 196.64 493.65 201.03C493.71 204.21 493.74 205.82 493.8 209Z" id="k4LSed6PAH"></path><path d="" id="a1Dj4kycPc"></path><path d="M243.81 396.57C250.4 396.57 255.74 401.91 255.74 408.5C255.74 432.12 255.74 491.05 255.74 514.68C255.74 521.26 250.4 526.61 243.81 526.61C241.42 526.61 246.19 526.61 243.81 526.61C237.22 526.61 231.88 521.26 231.88 514.68C231.88 491.05 231.88 432.12 231.88 408.5C231.88 401.91 237.22 396.57 243.81 396.57C246.19 396.57 241.42 396.57 243.81 396.57Z" id="dI1jBo6"></path><path d="M249.13 401.63C253.07 404.16 254.22 409.41 251.69 413.36C242.62 427.5 219.99 462.8 210.92 476.95C208.39 480.9 203.14 482.05 199.19 479.52C196.6 477.86 195.98 477.46 193.4 475.8C189.45 473.27 188.3 468.02 190.83 464.07C199.9 449.92 222.54 414.63 231.61 400.48C234.14 396.53 239.39 395.38 243.33 397.91C245.92 399.57 246.54 399.97 249.13 401.63Z" id="bBwGmbB8h"></path><path d="M276.12 474.26C276.21 478.65 272.72 482.27 268.33 482.35C252.61 482.65 213.38 483.39 197.65 483.69C193.27 483.77 189.65 480.28 189.56 475.89C189.5 472.71 189.47 471.1 189.41 467.92C189.33 463.54 192.82 459.91 197.2 459.83C212.93 459.53 252.16 458.79 267.88 458.5C272.27 458.41 275.89 461.9 275.97 466.29C276.03 469.47 276.06 471.08 276.12 474.26Z" id="k3OX98wPYU"></path><path d="M159.92 396.57C166.51 396.57 171.85 401.91 171.85 408.5C171.85 432.12 171.85 491.05 171.85 514.68C171.85 521.26 166.51 526.61 159.92 526.61C157.54 526.61 162.31 526.61 159.92 526.61C153.33 526.61 147.99 521.26 147.99 514.68C147.99 491.05 147.99 432.12 147.99 408.5C147.99 401.91 153.33 396.57 159.92 396.57C162.31 396.57 157.54 396.57 159.92 396.57Z" id="abKm9a8T5"></path><path d="M166.51 411.96C168.32 413.84 168.27 416.82 166.39 418.63C159.69 425.11 142.95 441.29 136.24 447.78C134.37 449.59 131.39 449.54 129.58 447.67C126.92 444.91 122.21 440.04 119.55 437.29C117.74 435.42 117.79 432.43 119.66 430.62C126.37 424.14 143.1 407.96 149.81 401.47C151.68 399.67 154.66 399.72 156.47 401.59C159.13 404.34 163.84 409.21 166.51 411.96Z" id="czcrbNve"></path><path d="M421.97 387.03C428.56 387.03 433.9 392.37 433.9 398.96C433.9 422.58 433.9 481.51 433.9 505.13C433.9 511.72 428.56 517.06 421.97 517.06C419.59 517.06 424.36 517.06 421.97 517.06C415.38 517.06 410.04 511.72 410.04 505.13C410.04 481.51 410.04 422.58 410.04 398.96C410.04 392.37 415.38 387.03 421.97 387.03C424.36 387.03 419.59 387.03 421.97 387.03Z" id="c7XC6FDwRM"></path><path d="M428.56 402.42C430.37 404.29 430.32 407.27 428.45 409.08C421.74 415.57 405 431.75 398.29 438.23C396.42 440.04 393.44 439.99 391.63 438.12C388.97 435.37 384.26 430.5 381.6 427.74C379.79 425.87 379.84 422.89 381.71 421.08C388.42 414.6 405.15 398.42 411.86 391.93C413.73 390.12 416.72 390.17 418.52 392.04C421.19 394.8 425.9 399.67 428.56 402.42Z" id="aUVxWZyMe"></path><path d="M493.06 387.03C499.65 387.03 504.99 392.37 504.99 398.96C504.99 422.58 504.99 481.51 504.99 505.13C504.99 511.72 499.65 517.06 493.06 517.06C490.68 517.06 495.45 517.06 493.06 517.06C486.47 517.06 481.13 511.72 481.13 505.13C481.13 481.51 481.13 422.58 481.13 398.96C481.13 392.37 486.47 387.03 493.06 387.03C495.45 387.03 490.68 387.03 493.06 387.03Z" id="a5mMDVBT4M"></path><path d="M499.65 402.42C501.46 404.29 501.41 407.27 499.53 409.08C492.83 415.57 476.09 431.75 469.38 438.23C467.51 440.04 464.53 439.99 462.72 438.12C460.06 435.37 455.35 430.5 452.69 427.74C450.88 425.87 450.93 422.89 452.8 421.08C459.51 414.6 476.24 398.42 482.95 391.93C484.82 390.12 487.8 390.17 489.61 392.04C492.27 394.8 496.99 399.67 499.65 402.42Z" id="e16qSZWKOy"></path></defs><g><g><g><use xlink:href="#a53FYUUtR" opacity="1" fill="#0ed0ed" fill-opacity="1"></use></g><g><use xlink:href="#a1bjjiG9RD" opacity="1" fill="#0eed0e" fill-opacity="1"></use></g><g><use xlink:href="#dJ26DWtm0" opacity="1" fill="#7c16bc" fill-opacity="1"></use></g><g><use xlink:href="#a2aZCzylh" opacity="1" fill="#ed5a0e" fill-opacity="1"></use></g><g><use xlink:href="#c1q4SEEQB0" opacity="1" fill="#fefefe" fill-opacity="1"></use></g><g><use xlink:href="#a1fhdc4P2G" opacity="1" fill="#fefefe" fill-opacity="1"></use></g><g><g><use xlink:href="#drS6pBEfI" opacity="1" fill-opacity="0" stroke="#000000" stroke-width="1" stroke-opacity="1"></use></g></g><g><use xlink:href="#b4w146LAoV" opacity="1" fill="#fefefe" fill-opacity="1"></use></g><g><use xlink:href="#c1dKY49tmQ" opacity="1" fill="#fefefe" fill-opacity="1"></use></g><g><use xlink:href="#k4LSed6PAH" opacity="1" fill="#fefefe" fill-opacity="1"></use></g><g><g><use xlink:href="#a1Dj4kycPc" opacity="1" fill-opacity="0" stroke="#000000" stroke-width="1" stroke-opacity="1"></use></g></g><g><use xlink:href="#dI1jBo6" opacity="1" fill="#fefefe" fill-opacity="1"></use></g><g><use xlink:href="#bBwGmbB8h" opacity="1" fill="#fefefe" fill-opacity="1"></use></g><g><use xlink:href="#k3OX98wPYU" opacity="1" fill="#fefefe" fill-opacity="1"></use></g><g><use xlink:href="#abKm9a8T5" opacity="1" fill="#fefefe" fill-opacity="1"></use></g><g><use xlink:href="#czcrbNve" opacity="1" fill="#fefefe" fill-opacity="1"></use></g><g><use xlink:href="#c7XC6FDwRM" opacity="1" fill="#fefefe" fill-opacity="1"></use></g><g><use xlink:href="#aUVxWZyMe" opacity="1" fill="#fefefe" fill-opacity="1"></use></g><g><use xlink:href="#a5mMDVBT4M" opacity="1" fill="#fefefe" fill-opacity="1"></use></g><g><use xlink:href="#e16qSZWKOy" opacity="1" fill="#fefefe" fill-opacity="1"></use></g></g></g></svg>
